X: 505
T: Cuffy
B: jims roots
M:4/4
L:1/8
Q: 1/4=100
K:G
V:1 
ef |: "G"gfed BdBG | DEGB d4 | "D"DFAB cBcd | "G"edBc d2 ef |
gfed BdBG | DEGA B4 | "D"DFAB cAFD| [1 "G"G6 ef:| [2 "G"G6 Bc||
|: d4 d4 | dedc Bc d2 | "C"e4 e4 | efed Bdef | "G"g2 ga gfef |
gfed BdBG | "D"DFAB cAFD| [1 "G"G6 Bc:| [2 "G"G8||
% abcbook-tune_id 6298c2452407e2f957c22f09


% abcbook-boost 0
% abcbook-tablature 
% abcbook-transpose 
% abcbook-lastupdated 1654178373894
% abcbook-soundfonts 
% abcbook-repeats 1


